X:350
T:Paris of the Prairies
M:C|
C:© Paul Gitlitz 2013
R:reel
K:D
("D"FG)Ac d3A|(FG)Ac d2d2|(FG)Ac d3e|(fed)f "A"e(dcA)|!
("D"FG)Ac d3A|(FG)Ac dcde|(fed)f "A"e(dcA)|1"D"A[d2f2][de] [d2f2]AG:|2"D"A[d2f2][de] [d2f2]ef|!
|"G"[de][d2g2]g- gfed|"D"[de] [d2f2][de] [d2f2]de|f2ff fede|"D"fedf "A"e2d2|!
"G"B3 B Bcd2|"D"A3BA2 de|fedf "A"edc2|"D"A[d2f2][de] [d2f2]ED|!
"G"[DA] [G2B2] G-GFED|"D"[DA] [F3A3][F2A2] DE|F2FF FEDE|"D"FEDF "A"E2D2|!
"G"B,3 B, B,CD2|"D"A,6 DE|FEDF "A"EDC2|"D"[D3A3][DA][D4A4]|]
